X: 19
T: Hans Thamsen
R: S\"onderhoning
M: 2/4
L: 1/16
K: D
f4 | f4 d2ff | g2f2 e2d2 | c3e e4 | f4 f2ef \
   | g2g2 c2c2 | d4 d3f | a4 a4 ||
